X: 860
T: Gönlüm Heves-i Zülf ü Siyehkâre Düşürdüm
C: Zekâî Dede
O: Turkey
F: http://compmusic.upf.edu/node/140
N: hisarbuselik--yuruksemai--yuruksemai--gonlum_hevesi--zekai_dede
N: makam= hisarbuselik
N: form= yuruksemai
N: usul= yuruksemai = 6/8
M: 6/8
L: 1/16
K: C _1/4B   
Q: 1/4=96
%%MIDI tuningsystem comma53
z8 z8 e8  | e8 f4^g4 e8  | z4e4 f4d4 d4e4  | \
w:  Gön  |  lüm  he ves_ i  |  zülf_ ü  si yeh  | 
c8 A4=B4 B4c4  | =B4c4 B4A2^G2 A8  | 
w:  kâ re  dü şür  |  düm   Yâr   | 
c16 G8  | z4c8d4 e8  | ^g2^1/4fgf4 e4^d4 e2fgf2e2  | \
w:  yâr   |  yâr   |  yâ *  *  *  re  dü şür  | 
e8 z8 e4^f4  | 
w:  düm   Mürg_  | 
g8 ^f2g2a4 e8  | z4e4 f4d4 d4e4  | c8 A4=B4 B4c4  | \
w:  i  di *  li mi   |  â teş_ i  hic  |  râ ne  dü şür  | 
=B4c4 B4A2^G2 A8  | 
w:  düm    | 
z4c8d4 e8  | f4e4 d4c2=B2 c8  | c4=B4 A4B4 A4^G4  | \
w:  Yâr   |  yâr  *  *  *  *  hic  |  râ *  ne  dü şür  | 
A8 z8 z8  | c16-c4=B4  | 
w:  düm    |  Yâr   | 
=B4c4 B4A4 G8  | c4=B4 A4A4 B2A2^G2A2  | \
w:  yâr  *  *  *  â  |  şûb_ *  u  ci han   | 
=B12z12  | c8 =B4A8e4  | d4e4 d4c4 =B8  | 
w:   |  ey   |  ey   | 
c8 c4=B4 B2ABA2^G2  | A12z12  | c4d16-d4  | \
w:  ey  meh_ i  dev  |  ran    |  Dost   | 
d4_e4 d4c2=B2 c8  | d8 _e4d4 d2c2=B2c2  | 
w:  dost   |  dert le re  der  | 
d12z12  | c8 =B4A8e4  | d4e4 d4c4 =B8  | \
w:  man   |  ha  |   | 
c4=B4 A4B4 A4^G4  | A8 z8 G8  | A8 =B4G4 A8  | 
w:  lim  *  *  pek  *  ya  |  man   Ten   |  nen  ni  te  nen   | 
z8 z8 c8  | G8 A4=B4 c8  | z8 z8 d2e2d4  | \
w:  ten   |  nen  ni  te  nen    |  Ten   | 
c8 d4e4 e8  | e4e8e4 e8  | f8 e4^d4 e3^gf2e2  | 
w:  nen  ni  te  nen   |  te  nen  te  nen   |  nâ  te  ne  dir   | 
e8 z8 e4^f4  | g8 ^f2g2a4 e8  | z4e4 f4d4 d4e4  | \
w:  ney   Mürg_  |  i  di *  li mi   |  â teş_ i  hic  | 
c8 A4=B4 B4c4  | =B4c4 B4A2^G2 A8  | 
w:  râ ne  dü şür  |  düm    | 
z4c8d4 e8  | f4e4 d4c2=B2 c8  | c4=B4 A4B4 A4^G4  | \
w:  Yâr   |  yâr  *  *  *  *  hic  |  râ *  ne  dü şür  | 
A8 z8 a8  | a8 c'4=b4 a6b2  | 
w:  düm   Gül   |  şev ki ne  bî  | 
^g8 f4e4 =b6a2  | ^g8 a4g2f2 f6e2  | \
w:  tâb  *  bu gün   |  nâ le ler_ *  et  | 
e12z12  | e4f8f2e2 a8  | ^g4f4 e4d4 =b8  | 
w:  tim    |  Yâr   |  yâr   | 
^g8 a4g2f2 f6e2  | e8 z8 e4^f4  | g8 ^f2g2a4 e8  | \
w:  nâ le ler_ *  et  |  tim   Sâd   |  pâ re  *  dil_ i   | 
z4e4 f4d4 d4e4  | 
w:  gon ca_ i  gül   | 
c8 A4=B4 B4c4  | =B4c4 B4A2^G2 A8  | \
w:  fâ me  dü şür  |  düm    | 
z4c8d4 e8  | f4e4 d4c2=B2 c8  | 
w:  Yâr   |  yâr  *  *  *  *  hic  | 
c4=B4 A4B4 A4^G4  | A8 z8 z8  | c16-c4=B4  | \
w:  râ *  ne  dü şür  |  düm    |  Yâr   | 
=B4c4 B4A4 G8  | c4=B4 A4A4 B2A2^G2A2  | 
w:  yâr  *  *  *  â  |  şûb_ *  u  ci han   | 
=B12z12  | c8 =B4A8e4  | d4e4 d4c4 =B8  | \
w:   |  ey   |  ey   | 
c8 c4=B4 B2ABA2^G2  | A12z12  | 
w:  ey  meh_ i  dev  |  ran    | 
c4d16-d4  | d4_e4 d4c2=B2 c8  | d8 _e4d4 d2c2=B2c2  | \
w:  Dost   |  dost   |  dert le re  der  | 
d12z12  | c8 =B4A8e4  | 
w:  man   |  ha  | 
d4e4 d4c4 =B8  | c4=B4 A4B4 A4^G4  | \
w:   |  lim  *  *  pek  *  ya  | 
A8 z8 G8  | A8 =B4G4 A8  | z8 z8 c8  | 
w:  man   Ten   |  nen  ni  te  nen   |  ten   | 
G8 A4=B4 c8  | z8 z8 d2e2d4  | c8 d4e4 e8  | \
w:  nen  ni  te  nen    |  Ten   |  nen  ni  te  nen   | 
e4e8e4 e8  | f8 e4^d4 e3^gf2e2  | 
w:  te  nen  te  nen   |  nâ  te  ne  dir   | 
e8 z8 e4^f4  | g8 ^f2g2a4 e8  | z4e4 f4d4 d4e4  | \
w:  ney   Mürg_  |  i  di *  li mi   |  â teş_ i  hic  | 
c8 A4=B4 B4c4  | =B4c4 B4A2^G2 A8  | 
w:  râ ne  dü şür  |  düm    | 
z4c8d4 e8  | f4e4 d4c2=B2 c8  | c4=B4 A4B4 A4^G4  | A24  | |


